src/pos-icons/screw-machine-round-top.svg

<svg height="24" viewBox="0 0 24 24" width="24" xmlns="http://www.w3.org/2000/svg"><path d="m14.5 7.3-1 .7v-1h-3v3l-1 .7v1l5-3.3zm0 4-1 .7v-2l-3 2v2l-1 .7v1l5-3.3zm0 4-1 .7v-2l-3 2v2l-1 .7v1l5-3.3zm-7.5-9.3h10s-1-3-5-3-5 3-5 3m6.5 12v3h-3v-1z"/></svg>

<?xml version="1.0" encoding="UTF-8"?><!DOCTYPE svg PUBLIC "-//W3C//DTD SVG 1.1//EN" "http://www.w3.org/Graphics/SVG/1.1/DTD/svg11.dtd"><svg xmlns="http://www.w3.org/2000/svg" xmlns:xlink="http://www.w3.org/1999/xlink" version="1.1" id="mdi-screw-machine-round-top" width="24" height="24" viewBox="0 0 24 24"><path d="M14.5,7.3L13.5,8V7H10.5V10L9.5,10.7V11.7L14.5,8.4V7.3M14.5,11.3L13.5,12V10L10.5,12V14L9.5,14.7V15.7L14.5,12.4V11.3M14.5,15.3L13.5,16V14L10.5,16V18L9.5,18.7V19.7L14.5,16.4V15.3M7,6H17C17,6 16,3 12,3C8,3 7,6 7,6M13.5,18V21H10.5V20L13.5,18Z" /></svg>
